X:20
T: Esszegyültek, esszegyültek...
O: Kászonújfalu (Csík), Róka Ádámné (60), 1912
Q: "Tempo guisto" 1/4=92
M:2/4
L:1/4
K: Eb
c/e/d/c/ | c/e/d/c/ | 
f/e/d/c/ | d G | d (G/F/) | 
B c | F B | 
A/c/B/A/ | G G/ z/ | 

